static/fa/svgs/solid/face-grin-wide.svg

<svg xmlns="http://www.w3.org/2000/svg" viewBox="0 0 512 512"><!--! Font Awesome Free 6.1.1 by @fontawesome - https://fontawesome.com License - https://fontawesome.com/license/free (Icons: CC BY 4.0, Fonts: SIL OFL 1.1, Code: MIT License) Copyright 2022 Fonticons, Inc.--><path d="M0 256C0 114.6 114.6 0 256 0s256 114.6 256 256-114.6 256-256 256S0 397.4 0 256zm256.3 75.8c-47.4 0-92.2-6.9-131.8-19-12.3-3.8-24.3 6.9-19.3 18.7C130.1 390.6 188.4 432 256.3 432c67.9 0 126.1-41.4 151.1-100.5 5-11.8-7-22.5-19.3-18.7-39.7 12.1-84.4 19-131.8 19zM176 128c-17.7 0-32 28.7-32 64s14.3 64 32 64 32-28.7 32-64-14.3-64-32-64zm160 128c17.7 0 32-28.7 32-64s-14.3-64-32-64-32 28.7-32 64 14.3 64 32 64z"/></svg>

<svg xmlns="http://www.w3.org/2000/svg" viewBox="0 0 512 512"><!--! Font Awesome Free 6.1.1 by @fontawesome - https://fontawesome.com License - https://fontawesome.com/license/free (Icons: CC BY 4.0, Fonts: SIL OFL 1.1, Code: MIT License) Copyright 2022 Fonticons, Inc. --><path d="M0 256C0 114.6 114.6 0 256 0C397.4 0 512 114.6 512 256C512 397.4 397.4 512 256 512C114.6 512 0 397.4 0 256zM256.3 331.8C208.9 331.8 164.1 324.9 124.5 312.8C112.2 309 100.2 319.7 105.2 331.5C130.1 390.6 188.4 432 256.3 432C324.2 432 382.4 390.6 407.4 331.5C412.4 319.7 400.4 309 388.1 312.8C348.4 324.9 303.7 331.8 256.3 331.8H256.3zM176 128C158.3 128 144 156.7 144 192C144 227.3 158.3 256 176 256C193.7 256 208 227.3 208 192C208 156.7 193.7 128 176 128zM336 256C353.7 256 368 227.3 368 192C368 156.7 353.7 128 336 128C318.3 128 304 156.7 304 192C304 227.3 318.3 256 336 256z"/></svg>
